X:1
T:Standing on the Promises
T:Russell Kelso Carter, 1886
T:Standing on the Promises
T:Public Domain
T:Public Domain
T:Public Domain
C:Russell Kelso Carter, 1886
Z:Public Domain
%%score ( 1 2 ) ( 3 4 )
L:1/8
M:4/4
K:Bb
V:1 treble 
V:2 treble 
V:3 bass 
V:4 bass 
V:1
 [DF]>[DF] [DF]>[EG] [DF]>[CE] [B,D]>[CE] | [DF]2 [DB]2 [DB]4 | %2
w: 1.~Stand- ing on the prom- is- es of|Christ my King,|
w: 2.~Stand- ing on the prom- is- es that|can- not fail,|
w: 3.~Stand- ing on the prom- is- es I|now can see|
w: 4.~Stand- ing on the prom- is- es of|Christ the Lord,|
w: 5.~Stand- ing on the prom- is- es I|can- not fall,|
 [EG]>[EG] [EG]>[FA] [GB]>[GB] [FA]>[EG] | [EG]2 [DF]2 [DF]4 | %4
w: Through e- ter- nal ag- es let His|prais- es ring,|
w: When the howl- ing storms of doubt and|fear as- sail,|
w: Per- fect, pre- sent cleans- ing in the|blood for me;|
w: Bound to Him e- tern- al- ly by|love’s strong cord,|
w: List- ening eve- ry mo- ment to the|Spir- it’s call|
 [DF]>[DF] [DF]>[EG] [DF]>[CE] [B,D]>[CE] | [DF]2 [DB]2 [DB]4 | %6
w: Glo- ry in the high- est, I will|shout and sing,|
w: By the liv- ing Word of God I|shall pre- vail,|
w: Stand- ing in the lib- er- ty where|Christ makes free,|
w: O- ver- com- ing dai- ly with the|Spir- it’s sword,|
w: Rest- ing in my Sav- ior as my|all in all,|
 [Fd]>[Fd] [DB]>[DB] [Ec]>[Ec] [EA]>[EA] | [DB]8 ||"^Refrain" (F>F F>F) (D>D D2) | %9
w: Stand- ing on the prom- is- es of|God.||
w: Stand- ing on the prom- is- es of|God.||
w: Stand- ing on the prom- is- es of|God.|Stand- * * * ing, * *|
w: Stand- ing on the prom- is- es of|God.||
w: Stand- ing on the prom- is- es of|God.||
 (E>E E>E) (D>D D2) | [Fc]>[Fc] [Fc]>[Fc] [Fc]>[Fc] [FB]>[Fc] | [Fd]2 [DB]2 [EG]2 [DB]2 | %12
w: |||
w: |||
w: Stand- * * * ing * *|prom- is- es of God my Sa- vior;|Stand- ing, stand- ing,|
w: |||
w: |||
 (F>F F>F) (D>D D2) | (E>E E>E) (G>G G)[Ec] | [DB]>[DB] [DB]>[Ec] [Fd]>[Fd] [Ec]>[Ec] | [DB]8 |] %16
w: ||||
w: ||||
w: I’m * * * stand- * *|the * * * prom- * * is-|God. * * * * * * *||
w: ||||
w: ||||
V:2
 x8 | x8 | x8 | x8 | x8 | x8 | x8 | x8 || d4 B4 | G4 B4 | x8 | x8 | d4 B4 | G4 e3 x | x8 | x8 |] %16
w: ||||||||||||||||
w: ||||||||||||||||
w: ||||||||stand- ing,|on the|||ing on|es of|||
V:3
 [B,,B,]>[B,,B,] [B,,B,]>[B,,B,] [B,,B,]>[B,,F,] [B,,F,]>[B,,F,] | [B,,B,]2 [B,,B,]2 [B,,B,]4 | %2
 [E,B,]>[E,B,] [E,B,]>[E,B,] [E,E]>[E,E] [E,B,]>[E,B,] | [B,,B,]2 [B,,B,]2 [B,,B,]4 | %4
 [B,,B,]>[B,,B,] [B,,B,]>[B,,B,] [B,,B,]>[B,,F,] [B,,F,]>[B,,F,] | [B,,B,]2 [B,,F,]2 [B,,F,]4 | %6
 [B,,B,]>[B,,B,] [B,,F,]>[B,,F,] [E,G,]>[E,G,] F,>F, | [B,,F,]8 || %8
 ([B,,B,]>[B,,B,] [B,,B,]>[B,,B,]) ([B,,B,]>[B,,B,] [B,,B,]2) | %9
 ([E,B,]>[E,B,] [E,B,]>[E,B,]) ([G,B,]>[G,B,] [G,B,]2) | %10
 [F,A,]>[F,A,] [F,A,]>[F,A,] [F,A,]>[F,A,] [F,G,]>[F,A,] | B,2 [B,,F,]2 [B,,B,]2 [B,,F,]2 | %12
 ([B,,B,]>[B,,B,] [B,,B,]>[B,,B,]) ([B,,B,]>[B,,B,] [B,,B,]2) | %13
 ([E,B,]>[E,B,] [E,B,]>[E,B,]) ([E,B,]>[E,B,] [E,B,])[E,G,] | %14
 [F,B,]>[F,B,] [F,B,]>[F,B,] [F,B,]>[F,B,] [F,A,]>F, | [B,,F,]8 |] %16
V:4
 x8 | x8 | x8 | x8 | x8 | x8 | x8 | x8 || x8 | x8 | x8 | B,2 x6 | x8 | x8 | x15/2 F,/ | x8 |] %16

